X: 5869
T: Cally's Northern
R: jig
M: 6/8
K: Aminor
|:cGA eBd|cGA {B}AGE|cGA eBA|GAB dBG|
cGA eBd|cGA {B}AGD|EFG AGF|BGF dBG:|
|:~c2A {B}AGA|BGD DGB|~c2A {B}AGA|fBd eBd|
~c2A {B}AGA|BGD DGD|EFG AGF|BGF dBG:|

